X:328
T: ICH SAH EIN ROESCHEN AM WEGE STEHN
N: B0384
O: Europa, Mitteleuropa, Deutschland
R: Liebes - Lied, Liebes - Lust
M: 4/4
L: 1/8
K: G
DGA | B2B3dAB | G4z
GAB | A2d3^cBc | d4z
ddd | d2^G2zBed | d2c2z
ABc | d2B2zBAd | B4z
Bcd | e2cAd2F2 | G4z

